app/img/logo.svg

<svg width="160" height="52" viewBox="0 0 160 52" fill="none" xmlns="http://www.w3.org/2000/svg">
<path d="M33.5828 13.9865C33.6053 12.7178 33.5828 9.80377 33.5828 9.80377H31.2949V12.2133H29.1688V9.80377H26.8847V12.2095H24.6044V9.79624H22.3128V12.1982H20.0927V9.79624H17.8349C17.8349 9.79624 17.8349 12.7215 17.8349 14.0844C17.8513 14.2409 17.925 14.3857 18.0419 14.491C18.4708 14.8863 18.9073 15.2741 19.3664 15.6393C19.5221 15.8256 19.6202 16.0532 19.6486 16.2944V19.1782L13.0898 12.6161L25.7032 0.00012207L38.3165 12.6161L31.7577 19.1782V16.2605C31.7785 16.0443 31.8667 15.8402 32.0099 15.6769C32.4614 15.3004 32.9092 14.924 33.3269 14.5286C33.4743 14.3844 33.565 14.192 33.5828 13.9865Z" fill="#FA003C"/>
<path d="M49.0534 29.5014L51.4391 25.7366L42.1296 16.4186L42.1484 13.2185C41.298 13.5234 39.1719 14.2839 37.5426 15.7748L26.5586 26.7719V51.9963L45.1098 33.4583C44.6997 29.8365 35.7439 27.0241 38.0054 22.0395C37.5689 27.1936 43.6197 27.8901 46.886 27.1634C46.5739 27.4375 46.2288 27.6715 45.8587 27.8599C46.8596 28.4209 48.0562 28.9028 49.0534 29.5014ZM30.3479 37.4641C30.3479 37.4641 28.1202 24.5958 38.7129 18.4328C38.5097 18.6587 31.9245 26.0415 30.3479 37.4641ZM41.3883 19.2422C43.0101 19.2422 43.9697 20.0554 44.1541 21.215C41.6743 20.7293 42.4833 20.1119 41.3883 19.2422Z" fill="#FA003C"/>
<path d="M42.5117 16.2228L42.5381 14.9503L43.788 14.2839L43.3927 17.1076L42.5117 16.2228Z" fill="#FA003C"/>
<path d="M2.38946 29.5014L0 25.7366L9.31325 16.4224L9.29444 13.2222C10.1411 13.5272 12.2672 14.2877 13.9003 15.7786L24.8843 26.7757V52.0001L6.33301 33.4583C6.74317 29.8365 15.6952 27.0242 13.4337 22.0395C13.8702 27.1936 7.81937 27.8901 4.55691 27.1635C4.8684 27.4383 5.2136 27.6724 5.58419 27.86C4.58325 28.4209 3.38663 28.9028 2.38946 29.5014ZM21.095 37.4641C21.095 37.4641 23.3189 24.5958 12.7262 18.4328C12.9332 18.6587 19.5183 26.0415 21.095 37.4641ZM10.0546 19.2422C8.43273 19.2422 7.47318 20.0554 7.28879 21.215C9.76857 20.7293 8.95578 20.1119 10.0546 19.2422Z" fill="#FA003C"/>
<path d="M8.92863 16.2228L8.90227 14.9503L7.65234 14.2839L8.04765 17.1076L8.92863 16.2228Z" fill="#FA003C"/>
<path d="M69.3505 36.5643C68.0295 36.5842 66.7155 36.3675 65.4709 35.9242C64.4411 35.5856 63.5366 34.9456 62.8745 34.087V36.1313H59.9883V29.076H62.9798V29.4525C62.9676 30.1951 63.2078 30.9198 63.6609 31.5081C64.1544 32.1293 64.8036 32.6087 65.5424 32.8973C66.4115 33.2463 67.3416 33.4179 68.278 33.4018C69.6026 33.4018 70.6374 33.1709 71.3824 32.7091C71.733 32.5141 72.0235 32.2268 72.2225 31.8784C72.4215 31.5299 72.5214 31.1337 72.5113 30.7325C72.531 30.335 72.449 29.939 72.2732 29.582C72.0974 29.225 71.8336 28.9187 71.5066 28.692C70.8331 28.2176 69.644 27.8298 67.9394 27.5174L66.4342 27.2463C62.315 26.4933 60.2555 24.4239 60.2555 21.0381C60.2336 19.9162 60.551 18.8139 61.1661 17.8756C61.7932 16.9532 62.6595 16.2191 63.6722 15.7522C64.775 15.2696 65.9628 15.0115 67.1664 14.9927C68.37 14.974 69.5652 15.195 70.6825 15.643C71.5721 16.0083 72.344 16.6114 72.914 17.3862V15.4247H75.7738V22.3708H72.7634V22.0734C72.7802 21.5378 72.6748 21.0055 72.455 20.5169C72.2353 20.0282 71.9071 19.5962 71.4953 19.2535C70.5688 18.5074 69.4023 18.1247 68.2141 18.1768C67.2237 18.1211 66.2405 18.3736 65.3994 18.8996C65.0772 19.1099 64.814 19.3991 64.6349 19.7398C64.4557 20.0804 64.3666 20.4612 64.3759 20.8461C64.3691 21.2253 64.4521 21.6007 64.6183 21.9417C64.7844 22.2826 65.0289 22.5793 65.3316 22.8075C65.9638 23.3095 67.1065 23.6998 68.7597 23.9784L70.0955 24.1968C72.3533 24.5607 74.004 25.2547 75.0475 26.2787C76.0911 27.3028 76.6092 28.6832 76.6016 30.42C76.6298 31.5679 76.321 32.6988 75.7136 33.6729C75.1014 34.613 74.2258 35.3516 73.1962 35.7962C71.9852 36.3286 70.6729 36.5907 69.3505 36.5643Z" fill="#190D41"/>
<path d="M89.3067 18.4516H87.1016V33.1082H89.3067V36.12H80.9492V33.1082H83.1543V18.4516H80.9492V15.4398H89.3067V18.4516Z" fill="#190D41"/>
<path d="M110.785 21.584H107.643V18.4516H100.332V24.2834H107.572V27.2237H100.332V33.1082H107.643V30.0022H110.801V36.1313H94.1797V33.1195H96.3848V18.4516H94.1797V15.4398H110.785V21.584Z" fill="#190D41"/>
<path d="M137.37 15.4284V18.4403H135.15V36.1351H131.12L121.265 21.0343V33.127H124.042V36.1388H115.601V33.127H117.803V18.4516H115.598V15.4397H121.833L131.662 30.42V18.4516H128.885V15.4397L137.37 15.4284Z" fill="#190D41"/>
<path d="M138.199 36.1313V33.1194H140.051L146.639 15.4247H151.403L158.045 33.1194H159.87V36.1313H151.268V33.1872H153.962L152.683 29.5918H145.006L143.697 33.1872H146.286V36.1313H138.199ZM145.932 26.9225H151.701L148.845 18.9712L145.932 26.9225Z" fill="#190D41"/>
<path d="M60.0312 48.4085V40.0242H62.0369C62.522 40.0117 63.0039 40.1069 63.448 40.3027C63.8228 40.4764 64.1382 40.7566 64.3549 41.1084C64.5726 41.4855 64.682 41.9155 64.6709 42.3508C64.6869 42.7944 64.5829 43.234 64.3699 43.6233C64.1558 43.9894 63.841 44.286 63.463 44.478C63.0254 44.6962 62.5408 44.8035 62.0519 44.7904H60.5995V48.4235L60.0312 48.4085ZM60.5844 44.2897H61.9353C62.3374 44.2996 62.7365 44.2171 63.1018 44.0488C63.4117 43.8969 63.6725 43.6607 63.8544 43.3673C64.0354 43.0625 64.1267 42.7128 64.1178 42.3584C64.1277 42.0074 64.0362 41.661 63.8544 41.3607C63.673 41.0742 63.4112 40.8477 63.1018 40.7094C62.7346 40.5478 62.3363 40.4694 61.9353 40.4797H60.5844V44.2897Z" fill="#190D41"/>
<path d="M70.9485 48.5704C70.4823 48.5769 70.0236 48.453 69.624 48.2127C69.234 47.9717 68.9136 47.6329 68.6945 47.2301C68.4609 46.7927 68.343 46.3028 68.3521 45.807C68.3427 45.3103 68.4592 44.8195 68.6907 44.3801C68.9083 43.9771 69.2291 43.6393 69.6202 43.4012C70.0183 43.1523 70.479 43.0217 70.9485 43.0247C71.4213 43.0232 71.8852 43.1536 72.2881 43.4012C72.6807 43.6354 72.993 43.9833 73.1837 44.3989V43.2055H73.7218V48.4085H73.1837V47.2037C72.9753 47.6155 72.6576 47.962 72.2655 48.2052C71.8704 48.4502 71.4134 48.5769 70.9485 48.5704ZM71.0576 48.0922C71.454 48.1019 71.8451 48.0002 72.1865 47.7986C72.5077 47.6039 72.7683 47.3236 72.9391 46.9891C73.1224 46.6207 73.2177 46.2147 73.2177 45.8032C73.2177 45.3917 73.1224 44.9857 72.9391 44.6173C72.766 44.2854 72.5058 44.0069 72.1865 43.8116C71.8464 43.6182 71.462 43.5165 71.0708 43.5165C70.6796 43.5165 70.2952 43.6182 69.9551 43.8116C69.6361 44.0072 69.376 44.2856 69.2025 44.6173C69.0192 44.9857 68.9239 45.3917 68.9239 45.8032C68.9239 46.2147 69.0192 46.6207 69.2025 46.9891C69.3759 47.3219 69.6359 47.6015 69.9551 47.7986C70.2888 47.9957 70.6702 48.0972 71.0576 48.0922Z" fill="#190D41"/>
<path d="M80.3164 48.4085V43.2055H80.8545V43.9998C80.9891 43.7101 81.2048 43.4655 81.4754 43.2958C81.7518 43.1322 82.0687 43.0499 82.3898 43.0586C82.5389 43.0588 82.6877 43.0739 82.8338 43.1038C82.9625 43.1298 83.0884 43.1676 83.2101 43.2168L82.9918 43.6761C82.885 43.6263 82.7726 43.5896 82.6569 43.5669C82.5329 43.5438 82.4069 43.5325 82.2807 43.533C82.0344 43.5334 81.7928 43.5997 81.5807 43.725C81.3652 43.8447 81.1799 44.0121 81.0389 44.2144C80.9058 44.4029 80.8336 44.6275 80.8319 44.8582V48.4273L80.3164 48.4085Z" fill="#190D41"/>
<path d="M90.2001 48.5703C90.0416 48.578 89.8835 48.5479 89.7389 48.4825C89.5943 48.417 89.4673 48.3181 89.3685 48.1939C89.1552 47.891 89.0517 47.5245 89.075 47.1548V43.6233H88.582V43.2167H89.075V41.2741H89.6131V43.2167H90.9452V43.6233H89.6131V47.1548C89.5971 47.4039 89.6603 47.6516 89.7937 47.8626C89.8505 47.9432 89.927 48.0081 90.0159 48.0509C90.1048 48.0937 90.2032 48.1131 90.3017 48.1073C90.4961 48.1125 90.6867 48.0529 90.8435 47.9378L90.9828 48.367C90.8662 48.438 90.7392 48.49 90.6065 48.5214C90.4739 48.5562 90.3371 48.5726 90.2001 48.5703Z" fill="#190D41"/>
<path d="M96.9883 48.4084V43.2054H97.5264V43.9584C97.677 43.6905 97.8983 43.4691 98.1661 43.3184C98.5104 43.1265 98.9012 43.034 99.295 43.0511C99.6558 43.0406 100.013 43.1264 100.33 43.2996C100.62 43.464 100.852 43.7155 100.992 44.0186C101.153 44.3848 101.232 44.782 101.222 45.182V48.4197H100.683V45.2799C100.715 44.8056 100.573 44.3362 100.285 43.9584C100.141 43.8045 99.9659 43.6842 99.7707 43.6061C99.5755 43.528 99.3655 43.494 99.1557 43.5066C98.8533 43.4979 98.5537 43.5679 98.2865 43.7099C98.0569 43.8327 97.8656 44.0164 97.7333 44.2408C97.6043 44.4542 97.5365 44.6991 97.5377 44.9486V48.4197L96.9883 48.4084Z" fill="#190D41"/>
<path d="M110.128 48.5704C109.619 48.5768 109.117 48.4468 108.675 48.1939C108.257 47.9582 107.91 47.6136 107.672 47.1967C107.433 46.7798 107.312 46.3061 107.321 45.8258C107.318 45.449 107.389 45.0754 107.531 44.7265C107.802 44.0612 108.322 43.5286 108.98 43.2431C109.309 43.0993 109.664 43.0262 110.023 43.0285C110.482 43.0221 110.936 43.1361 111.338 43.3594C111.74 43.5826 112.076 43.9073 112.314 44.301C112.562 44.7105 112.7 45.1776 112.713 45.6564V45.7467C112.715 45.7756 112.715 45.8045 112.713 45.8333H107.848C107.839 46.2434 107.941 46.6481 108.145 47.0042C108.337 47.3424 108.618 47.6211 108.958 47.8099C109.32 48.0093 109.729 48.1105 110.143 48.1035C110.542 48.1094 110.936 48.0163 111.291 47.8324C111.626 47.6569 111.91 47.3975 112.115 47.0795L112.521 47.3054C112.279 47.7002 111.935 48.0217 111.524 48.2353C111.094 48.461 110.614 48.5762 110.128 48.5704ZM107.87 45.4192H112.171C112.13 45.064 112.001 44.7248 111.795 44.4328C111.601 44.1493 111.344 43.9157 111.042 43.7514C110.731 43.5819 110.381 43.495 110.026 43.4991C109.492 43.4933 108.975 43.6867 108.576 44.0417C108.176 44.3967 107.923 44.8878 107.866 45.4192H107.87Z" fill="#190D41"/>
<path d="M118.836 48.4085V43.2055H119.374V43.9998C119.509 43.7101 119.724 43.4655 119.995 43.2958C120.271 43.1322 120.588 43.0499 120.909 43.0586C121.058 43.0588 121.207 43.0739 121.353 43.1038C121.482 43.1298 121.608 43.1676 121.73 43.2168L121.511 43.6761C121.405 43.6257 121.292 43.589 121.176 43.5669C121.052 43.5438 120.926 43.5325 120.8 43.533C120.554 43.5334 120.312 43.5997 120.1 43.725C119.885 43.8447 119.699 44.0121 119.558 44.2144C119.425 44.4029 119.353 44.6275 119.351 44.8582V48.4273L118.836 48.4085Z" fill="#190D41"/>
<path d="M128.788 48.5704C128.385 48.5787 127.99 48.4601 127.659 48.2315C127.319 47.9944 127.057 47.6616 126.906 47.2753L127.23 47.0042C127.359 47.3351 127.576 47.6242 127.858 47.84C128.12 48.0364 128.438 48.141 128.765 48.1374C128.991 48.1399 129.214 48.0883 129.416 47.9868C129.62 47.8928 129.791 47.7401 129.908 47.5483C130.024 47.3565 130.081 47.1343 130.071 46.9101C130.083 46.7199 130.027 46.5316 129.913 46.3792C129.786 46.2357 129.628 46.1236 129.45 46.0517C129.247 45.9576 129.002 45.8559 128.697 45.7467C128.475 45.6564 128.257 45.5585 128.046 45.4493C127.845 45.3457 127.667 45.2023 127.523 45.0276C127.38 44.8401 127.307 44.6084 127.316 44.3726C127.313 44.13 127.384 43.8922 127.52 43.6911C127.658 43.4859 127.849 43.322 128.073 43.2168C128.32 43.0966 128.592 43.036 128.867 43.0398C129.153 43.0381 129.436 43.1094 129.687 43.2469C129.941 43.3895 130.159 43.5892 130.323 43.8304L130.029 44.1203C129.913 43.9155 129.744 43.7458 129.539 43.6292C129.334 43.5126 129.102 43.4533 128.867 43.4577C128.594 43.4468 128.327 43.5351 128.114 43.7062C128.02 43.7852 127.945 43.8845 127.895 43.9967C127.845 44.1088 127.821 44.2309 127.824 44.3537C127.818 44.5236 127.877 44.6894 127.99 44.8168C128.115 44.9479 128.264 45.0528 128.43 45.1255C128.611 45.2084 128.807 45.2949 129.032 45.3778C129.348 45.4983 129.623 45.615 129.856 45.7279C130.068 45.8296 130.253 45.9807 130.394 46.1684C130.53 46.3856 130.596 46.6392 130.583 46.895C130.59 47.2066 130.508 47.5136 130.346 47.7797C130.19 48.0324 129.966 48.235 129.698 48.3633C129.414 48.5007 129.103 48.5715 128.788 48.5704Z" fill="#190D41"/>
<path d="M136.781 48.4085V39.6552H137.319V43.9471C137.469 43.6794 137.689 43.4579 137.955 43.3071C138.3 43.1165 138.691 43.0241 139.084 43.0398C139.445 43.0294 139.802 43.1151 140.119 43.2883C140.399 43.4546 140.621 43.703 140.755 43.9998C140.918 44.3654 140.996 44.7631 140.984 45.1632V48.4009H140.446V45.2611C140.479 44.7866 140.337 44.3165 140.047 43.9396C139.905 43.7837 139.73 43.6616 139.535 43.5821C139.34 43.5026 139.129 43.4679 138.919 43.4803C138.616 43.4709 138.316 43.5424 138.049 43.6874C137.82 43.8126 137.629 43.9973 137.496 44.222C137.37 44.4364 137.304 44.6809 137.304 44.9298V48.4009L136.781 48.4085Z" fill="#190D41"/>
<path d="M147.763 42.1739C147.697 42.1732 147.632 42.155 147.575 42.1212C147.519 42.0885 147.472 42.0418 147.439 41.9856C147.406 41.9286 147.387 41.8637 147.387 41.7974C147.387 41.7298 147.405 41.6635 147.439 41.6054C147.472 41.5493 147.519 41.5026 147.575 41.4699C147.632 41.4373 147.697 41.4205 147.763 41.4209C147.83 41.4198 147.897 41.4367 147.955 41.4699C148.011 41.5026 148.058 41.5493 148.091 41.6054C148.124 41.6639 148.141 41.7302 148.14 41.7974C148.14 41.8634 148.123 41.9283 148.091 41.9856C148.058 42.0418 148.011 42.0885 147.955 42.1212C147.897 42.1557 147.831 42.1739 147.763 42.1739ZM147.496 48.4085V43.2055H148.034V48.4085H147.496Z" fill="#190D41"/>
<path d="M154.629 51.0514V43.2054H155.167V44.3763C155.368 43.968 155.681 43.6257 156.07 43.3899C156.465 43.143 156.921 43.0125 157.387 43.0134C157.86 43.0099 158.325 43.1404 158.727 43.3899C159.119 43.6283 159.44 43.9676 159.656 44.3725C159.881 44.8117 159.999 45.2983 159.999 45.7919C159.999 46.2855 159.881 46.772 159.656 47.2112C159.441 47.6169 159.122 47.9575 158.731 48.1976C158.331 48.4465 157.869 48.577 157.398 48.5741C156.936 48.5779 156.482 48.4519 156.087 48.2103C155.693 47.9687 155.374 47.6213 155.167 47.2075V51.0551L154.629 51.0514ZM157.297 48.0922C157.687 48.099 158.071 47.9974 158.407 47.7985C158.727 47.6023 158.987 47.3224 159.159 46.9891C159.34 46.6206 159.434 46.2156 159.434 45.8051C159.434 45.3946 159.34 44.9895 159.159 44.621C158.987 44.2875 158.727 44.0076 158.407 43.8116C158.159 43.6581 157.882 43.557 157.593 43.5145C157.304 43.4719 157.01 43.4889 156.728 43.5644C156.446 43.6398 156.182 43.7722 155.954 43.9532C155.725 44.1343 155.535 44.3603 155.397 44.6173C155.213 44.9857 155.118 45.3916 155.118 45.8032C155.118 46.2147 155.213 46.6207 155.397 46.9891C155.569 47.3223 155.829 47.6021 156.149 47.7985C156.5 48.0066 156.904 48.1086 157.312 48.0922H157.297Z" fill="#190D41"/>
</svg>

<svg width="160" height="52" fill="none" xmlns="http://www.w3.org/2000/svg"><path d="M33.583 13.986c.022-1.268 0-4.182 0-4.182h-2.288v2.41h-2.126v-2.41h-2.284v2.405h-2.28V9.796h-2.292v2.402h-2.22V9.796h-2.258v4.288c.016.157.09.302.207.407.429.395.865.783 1.324 1.148.156.187.254.414.283.655v2.884l-6.56-6.562L25.704 0l12.613 12.616-6.558 6.562V16.26c.02-.216.109-.42.252-.583.451-.377.9-.753 1.317-1.148a.862.862 0 00.256-.543zM49.053 29.501l2.386-3.764-9.31-9.318.02-3.2c-.851.304-2.977 1.065-4.606 2.556L26.559 26.772v25.224l18.55-18.538c-.41-3.621-9.365-6.434-7.104-11.418-.436 5.154 5.615 5.85 8.881 5.123a4.981 4.981 0 01-1.027.697c1 .56 2.197 1.043 3.194 1.641zm-18.705 7.963s-2.228-12.868 8.365-19.031c-.203.226-6.789 7.608-8.365 19.031zm11.04-18.222c1.622 0 2.582.813 2.766 1.973-2.48-.486-1.67-1.103-2.766-1.973z" fill="#FA003C"/><path d="M42.512 16.223l.026-1.273 1.25-.666-.395 2.824-.881-.885zM2.39 29.501L0 25.737l9.313-9.315-.019-3.2c.847.305 2.973 1.066 4.606 2.557l10.984 10.997V52L6.333 33.458c.41-3.621 9.362-6.434 7.1-11.418.437 5.154-5.614 5.85-8.876 5.123.311.275.657.51 1.027.697-1 .56-2.197 1.043-3.195 1.641zm18.705 7.963s2.224-12.868-8.369-19.031c.207.226 6.792 7.608 8.369 19.031zm-11.04-18.222c-1.622 0-2.582.813-2.766 1.973 2.48-.486 1.667-1.103 2.766-1.973z" fill="#FA003C"/><path d="M8.929 16.223l-.027-1.273-1.25-.666.396 2.824.88-.885z" fill="#FA003C"/><path d="M69.35 36.564a11.066 11.066 0 01-3.88-.64 5.414 5.414 0 01-2.596-1.837v2.044h-2.886v-7.055h2.992v.377a3.28 3.28 0 00.68 2.055 4.49 4.49 0 001.882 1.39c.87.348 1.8.52 2.736.504 1.325 0 2.36-.231 3.104-.693a2.198 2.198 0 001.13-1.977 2.342 2.342 0 00-1.005-2.04c-.674-.474-1.863-.862-3.568-1.175l-1.505-.27c-4.119-.754-6.178-2.823-6.178-6.209a5.57 5.57 0 01.91-3.162 6.138 6.138 0 012.506-2.124 9.069 9.069 0 017.01-.109c.89.365 1.662.968 2.232 1.743v-1.961h2.86v6.946h-3.01v-.298a3.524 3.524 0 00-1.269-2.82 4.89 4.89 0 00-3.28-1.076 4.8 4.8 0 00-2.816.723 2.258 2.258 0 00-1.023 1.946 2.402 2.402 0 00.956 1.962c.632.502 1.775.892 3.428 1.17l1.335.219c2.258.364 3.909 1.058 4.953 2.082 1.043 1.024 1.561 2.404 1.554 4.141a5.875 5.875 0 01-.888 3.253 5.702 5.702 0 01-2.518 2.123 9.104 9.104 0 01-3.846.768zM89.307 18.452h-2.205v14.656h2.205v3.012h-8.358v-3.012h2.205V18.452H80.95V15.44h8.358v3.012zM110.785 21.584h-3.142v-3.132h-7.311v5.831h7.24v2.94h-7.24v5.885h7.311v-3.106h3.158v6.13H94.18V33.12h2.205V18.452H94.18V15.44h16.605v6.144zM137.37 15.428v3.012h-2.22v17.695h-4.03l-9.855-15.1v12.092h2.777v3.012h-8.441v-3.012h2.202V18.452h-2.205V15.44h6.235l9.829 14.98V18.452h-2.777V15.44l8.485-.012zM138.199 36.131V33.12h1.852l6.588-17.694h4.764l6.642 17.694h1.825v3.012h-8.602v-2.944h2.694l-1.279-3.595h-7.677l-1.309 3.595h2.589v2.944h-8.087zm7.733-9.209h5.769l-2.856-7.95-2.913 7.95zM60.031 48.408v-8.384h2.006c.485-.012.967.083 1.411.279.375.173.69.454.907.805.218.378.327.808.316 1.243.016.443-.088.883-.301 1.272a2.21 2.21 0 01-.907.855 2.983 2.983 0 01-1.411.312h-1.453v3.633l-.568-.015zm.553-4.118h1.351c.402.01.801-.073 1.167-.241.31-.152.57-.388.752-.682.181-.304.273-.654.264-1.009a1.827 1.827 0 00-.264-.997 1.723 1.723 0 00-.752-.652 2.722 2.722 0 00-1.167-.23h-1.35v3.81zM70.948 48.57a2.502 2.502 0 01-1.324-.357c-.39-.241-.71-.58-.93-.983a2.908 2.908 0 01-.342-1.423c-.01-.497.107-.988.339-1.427.217-.403.538-.74.93-.979.397-.249.858-.38 1.328-.376.472-.002.936.129 1.34.376.392.234.704.582.895.998v-1.194h.538v5.203h-.538v-1.204a2.515 2.515 0 01-.918 1.001 2.434 2.434 0 01-1.318.365zm.11-.478c.396.01.787-.092 1.128-.293.322-.195.582-.475.753-.81a2.662 2.662 0 000-2.372 2.063 2.063 0 00-.752-.805 2.257 2.257 0 00-2.232 0c-.319.195-.579.474-.752.805a2.662 2.662 0 000 2.372c.173.333.433.613.752.81.334.197.715.298 1.103.293zM80.316 48.408v-5.203h.538V44c.135-.29.35-.535.621-.704.277-.164.594-.246.915-.237a2.23 2.23 0 01.82.158l-.218.46a1.455 1.455 0 00-.335-.11 2.01 2.01 0 00-.376-.034 1.38 1.38 0 00-.7.192c-.216.12-.401.287-.542.49a1.13 1.13 0 00-.207.643v3.57l-.516-.02zM90.2 48.57a1.001 1.001 0 01-.832-.376 1.627 1.627 0 01-.293-1.04v-3.53h-.493v-.407h.493v-1.943h.538v1.943h1.332v.406h-1.332v3.532c-.016.249.047.497.18.708a.58.58 0 00.509.244.876.876 0 00.541-.17l.14.43a1.298 1.298 0 01-.377.154c-.132.035-.269.052-.406.05zM96.988 48.408v-5.203h.538v.753c.151-.267.372-.489.64-.64a2.129 2.129 0 011.129-.267c.36-.01.718.075 1.035.249.29.164.522.416.662.719.161.366.24.763.23 1.163v3.238h-.539v-3.14a1.962 1.962 0 00-.398-1.322 1.433 1.433 0 00-1.13-.451 1.745 1.745 0 00-.868.203 1.42 1.42 0 00-.75 1.239v3.47l-.549-.01zM110.128 48.57a2.854 2.854 0 01-1.453-.376 2.659 2.659 0 01-1.354-2.368c-.003-.377.068-.75.21-1.1a2.745 2.745 0 011.449-1.483 2.562 2.562 0 011.043-.215 2.634 2.634 0 012.291 1.273c.248.41.386.877.399 1.355v.09a.626.626 0 010 .087h-4.865c-.009.41.093.815.297 1.171.192.338.473.617.813.806.362.2.771.3 1.185.293.399.006.793-.087 1.148-.27a2.19 2.19 0 00.824-.753l.406.225a2.547 2.547 0 01-.997.93c-.43.226-.91.341-1.396.335zm-2.258-3.15h4.301a2.135 2.135 0 00-.376-.987 2.167 2.167 0 00-.753-.682 2.073 2.073 0 00-1.016-.252 2.146 2.146 0 00-2.16 1.92h.004zM118.836 48.408v-5.203h.538V44c.135-.29.35-.535.621-.704.276-.164.593-.246.914-.237a2.23 2.23 0 01.821.158l-.219.46a1.385 1.385 0 00-.335-.11 2.01 2.01 0 00-.376-.034c-.246 0-.488.067-.7.192-.215.12-.401.287-.542.49a1.133 1.133 0 00-.207.643v3.57l-.515-.02zM128.788 48.57a1.917 1.917 0 01-1.129-.339 2.096 2.096 0 01-.753-.956l.324-.27c.129.33.346.62.628.835.262.196.58.301.907.297.226.003.449-.049.651-.15a1.13 1.13 0 00.655-1.077.802.802 0 00-.158-.53 1.236 1.236 0 00-.463-.328 8.982 8.982 0 00-.753-.305 7.85 7.85 0 01-.651-.298 1.668 1.668 0 01-.523-.421 1.016 1.016 0 01-.207-.655 1.19 1.19 0 01.204-.682c.138-.205.329-.369.553-.474.247-.12.519-.181.794-.177.286-.002.569.07.82.207.254.142.472.342.636.583l-.294.29a1.304 1.304 0 00-1.162-.662 1.13 1.13 0 00-.753.248.81.81 0 00-.29.648.662.662 0 00.166.463c.125.13.274.236.44.309.181.082.377.169.602.252.316.12.591.237.824.35.212.102.397.253.538.44.136.218.202.471.189.727a1.63 1.63 0 01-.237.885c-.156.252-.38.455-.648.583a2.072 2.072 0 01-.91.207zM136.781 48.408v-8.753h.538v4.292c.15-.268.37-.49.636-.64.345-.19.736-.283 1.129-.267.361-.01.718.075 1.035.248.28.167.502.415.636.712.163.365.241.763.229 1.163v3.238h-.538v-3.14a1.946 1.946 0 00-.399-1.321 1.415 1.415 0 00-1.128-.46 1.711 1.711 0 00-.87.207c-.229.126-.42.31-.553.535a1.397 1.397 0 00-.192.708v3.47l-.523.008zM147.763 42.174a.377.377 0 01-.324-.188.377.377 0 01.136-.516.374.374 0 01.188-.05.376.376 0 01.328.185.386.386 0 010 .38.38.38 0 01-.328.189zm-.267 6.234v-5.203h.538v5.203h-.538zM154.629 51.051v-7.846h.538v1.171c.201-.408.514-.75.903-.986a2.475 2.475 0 011.317-.377c.473-.003.938.127 1.34.377.392.238.713.578.929.983a3.114 3.114 0 010 2.838 2.568 2.568 0 01-.925.987c-.4.248-.862.379-1.333.376a2.473 2.473 0 01-2.231-1.366v3.847l-.538-.004zm2.668-2.959c.39.007.774-.095 1.11-.294.32-.196.58-.476.752-.809a2.685 2.685 0 000-2.368 2.052 2.052 0 00-.752-.81 2.137 2.137 0 00-3.01.806 2.653 2.653 0 000 2.372c.172.333.432.613.752.81.351.208.755.31 1.163.293h-.015z" fill="#190D41"/></svg>
